.local/share/icons/Gruvbox-Plus-Dark/mimetypes/scalable/application-illustrator.svg

<svg width="256" height="256" viewBox="0 0 256 256" fill="none" xmlns="http://www.w3.org/2000/svg">
<g clip-path="url(#clip0)">
<g opacity="0.4" filter="url(#filter0_f)">
<path d="M55.0839 15.5636H155.608L216.009 75.7129L216.011 224.609C216.011 233.52 208.749 240.737 199.838 240.737H55.0838C46.1734 240.737 39 233.564 39 224.654V31.6474C39 22.737 46.1734 15.5636 55.0838 15.5636H55.0839Z" fill="#282828"/>
</g>
<path d="M55.0839 15H155.608L216.009 75.1493L216.011 224.045C216.011 232.956 208.749 240.174 199.838 240.174H55.0838C46.1734 240.174 39 233 39 224.09V31.0838C39 22.1734 46.1734 15 55.0838 15H55.0839Z" fill="#ebdbb2"/>
<path fill-rule="evenodd" clip-rule="evenodd" d="M155.609 22.9787H55.0839C50.58 22.9787 46.9787 26.5799 46.9787 31.0838V224.09C46.9787 228.594 50.5799 232.195 55.0838 232.195H199.838C204.371 232.195 208.032 228.521 208.032 224.046V75.1493L155.609 22.9787ZM155.608 15H55.0839C46.1735 15 39 22.1734 39 31.0838V224.09C39 233 46.1734 240.174 55.0838 240.174H199.838C208.749 240.174 216.011 232.956 216.011 224.045L216.009 75.1493L155.608 15Z" fill="url(#paint0_linear)"/>
<path opacity="0.1" d="M99.2636 152.213L92.5896 178.136C92.4207 178.827 92.1672 179 91.3224 179H78.9037C78.0589 179 77.8899 178.741 78.0589 177.704L103.903 81.3565H121.182L149.192 177.877C149.361 178.568 149.192 179 148.516 179H134.492C133.816 179 133.394 178.827 133.225 178.222L126.213 152.213H99.2636ZM122.749 138.215C120.384 128.623 114.808 107.712 112.696 97.6026H112.527C110.753 107.712 106.276 124.821 102.727 138.215H122.749ZM160.766 90.1715C160.766 84.6413 164.567 81.3577 169.383 81.3577C174.536 81.3577 178 84.9005 178 90.1715C178 95.8745 174.367 98.9852 169.214 98.9852C164.314 98.9852 160.766 95.8745 160.766 90.1715ZM161.78 109.786C161.78 109.095 162.033 108.749 162.793 108.749H176.057C176.733 108.749 177.071 109.009 177.071 109.786V177.963C177.071 178.654 176.902 179 176.057 179H162.962C162.118 179 161.864 178.568 161.864 177.877V109.786H161.78Z" fill="#282828"/>
<path d="M99.2636 149.857L92.5896 175.779C92.4207 176.471 92.1672 176.643 91.3224 176.643H78.9037C78.0589 176.643 77.8899 176.384 78.0589 175.347L103.903 79H121.182L149.192 175.52C149.361 176.212 149.192 176.643 148.516 176.643H134.492C133.816 176.643 133.394 176.471 133.225 175.866L126.213 149.857H99.2636ZM122.749 135.858C120.384 126.267 114.808 105.356 112.696 95.2461H112.527C110.753 105.356 106.276 122.465 102.727 135.858H122.749ZM160.766 87.8149C160.766 82.2847 164.567 79.0012 169.383 79.0012C174.536 79.0012 178 82.544 178 87.8149C178 93.518 174.367 96.6287 169.214 96.6287C164.314 96.6287 160.766 93.518 160.766 87.8149ZM161.78 107.43C161.78 106.739 162.033 106.393 162.793 106.393H176.057C176.733 106.393 177.071 106.652 177.071 107.43V175.607C177.071 176.298 176.902 176.643 176.057 176.643H162.962C162.118 176.643 161.864 176.212 161.864 175.52V107.43H161.78Z" fill="url(#paint1_linear)"/>
<path opacity="0.25" d="M155.608 17V61.2306C155.608 70.141 162.867 77.1605 171.777 77.1605L216.009 77.1493V75.1493L155.608 17Z" fill="#282828"/>
<path d="M155.608 15V59.2306C155.608 68.141 162.867 75.1605 171.777 75.1605L216.009 75.1493L155.608 15Z" fill="url(#paint2_linear)"/>
</g>
<defs>
<filter id="filter0_f" x="23.8778" y="0.441412" width="207.255" height="255.418" filterUnits="userSpaceOnUse" color-interpolation-filters="sRGB">
<feFlood flood-opacity="0" result="BackgroundImageFix"/>
<feBlend mode="normal" in="SourceGraphic" in2="BackgroundImageFix" result="shape"/>
<feGaussianBlur stdDeviation="7.5611" result="effect1_foregroundBlur"/>
</filter>
<linearGradient id="paint0_linear" x1="39" y1="15" x2="39" y2="240.174" gradientUnits="userSpaceOnUse">
<stop offset="1e-07" stop-color="#fabd2f"/>
<stop offset="0.5" stop-color="#fe8019"/>
<stop offset="1" stop-color="#d65d0e"/>
</linearGradient>
<linearGradient id="paint1_linear" x1="78" y1="79" x2="78" y2="176.643" gradientUnits="userSpaceOnUse">
<stop offset="1e-07" stop-color="#fabd2f"/>
<stop offset="0.5" stop-color="#fe8019"/>
<stop offset="1" stop-color="#d65d0e"/>
</linearGradient>
<linearGradient id="paint2_linear" x1="155.608" y1="15" x2="155.608" y2="75.1605" gradientUnits="userSpaceOnUse">
<stop offset="1e-07" stop-color="#fabd2f"/>
<stop offset="0.5" stop-color="#fe8019"/>
<stop offset="1" stop-color="#d65d0e"/>
</linearGradient>
<clipPath id="clip0">
<rect width="256" height="256" fill="#ebdbb2"/>
</clipPath>
</defs>
</svg>

<svg width="256" height="256" fill="none" version="1.1" viewBox="0 0 256 256" xmlns="http://www.w3.org/2000/svg">
  <path d="m55.08 15h100.5l60.4 60.15 2e-3 148.9c0 8.911-7.262 16.13-16.17 16.13h-144.8c-8.91 0-16.08-7.174-16.08-16.08v-193c0-8.91 7.173-16.08 16.08-16.08h1e-4z" fill="#ebdbb2"/>
  <path d="m155.6 22.98h-100.5c-4.504 0-8.105 3.601-8.105 8.105v193c0 4.504 3.601 8.105 8.105 8.105h144.8c4.533 0 8.194-3.674 8.194-8.149v-148.9l-52.42-52.17zm-1e-3 -7.979h-100.5c-8.91 0-16.08 7.173-16.08 16.08v193c0 8.91 7.173 16.08 16.08 16.08h144.8c8.911 0 16.17-7.218 16.17-16.13l-2e-3 -148.9-60.4-60.15z" clip-rule="evenodd" fill="url(#paint0_linear)" fill-rule="evenodd"/>
  <path d="m99.26 152.2-6.674 25.92c-0.1689 0.691-0.4224 0.864-1.267 0.864h-12.42c-0.8448 0-1.014-0.259-0.8448-1.296l25.84-96.35h17.28l28.01 96.52c0.169 0.691 0 1.123-0.676 1.123h-14.02c-0.676 0-1.098-0.173-1.267-0.778l-7.012-26.01h-26.95zm23.49-14c-2.365-9.592-7.941-30.5-10.05-40.61h-0.169c-1.774 10.11-6.251 27.22-9.8 40.61h20.02zm38.02-48.04c0-5.53 3.801-8.814 8.617-8.814 5.153 0 8.617 3.543 8.617 8.814 0 5.703-3.633 8.814-8.786 8.814-4.9 0-8.448-3.111-8.448-8.814zm1.014 19.61c0-0.691 0.253-1.037 1.013-1.037h13.26c0.676 0 1.014 0.26 1.014 1.037v68.18c0 0.691-0.169 1.037-1.014 1.037h-13.1c-0.844 0-1.098-0.432-1.098-1.123v-68.09h-0.084z" fill="#282828" opacity=".1"/>
  <path d="m99.26 149.9-6.674 25.92c-0.1689 0.692-0.4224 0.864-1.267 0.864h-12.42c-0.8448 0-1.014-0.259-0.8448-1.296l25.84-96.35h17.28l28.01 96.52c0.169 0.692 0 1.123-0.676 1.123h-14.02c-0.676 0-1.098-0.172-1.267-0.777l-7.012-26.01h-26.95zm23.49-14c-2.365-9.591-7.941-30.5-10.05-40.61h-0.169c-1.774 10.11-6.251 27.22-9.8 40.61h20.02zm38.02-48.04c0-5.53 3.801-8.814 8.617-8.814 5.153 0 8.617 3.543 8.617 8.814 0 5.703-3.633 8.814-8.786 8.814-4.9 0-8.448-3.111-8.448-8.814zm1.014 19.62c0-0.691 0.253-1.037 1.013-1.037h13.26c0.676 0 1.014 0.259 1.014 1.037v68.18c0 0.691-0.169 1.036-1.014 1.036h-13.1c-0.844 0-1.098-0.431-1.098-1.123v-68.09h-0.084z" fill="url(#paint1_linear)"/>
  <path d="m155.6 17v44.23c0 8.91 7.259 15.93 16.17 15.93l44.23-0.0112v-2l-60.4-58.15z" fill="#282828" opacity=".25"/>
  <path d="m155.6 15v44.23c0 8.91 7.259 15.93 16.17 15.93l44.23-0.0112-60.4-60.15z" fill="url(#paint2_linear)"/>
  <defs>
    <linearGradient id="paint0_linear" x1="39" x2="39" y1="15" y2="240.2" gradientUnits="userSpaceOnUse">
      <stop stop-color="#fabd2f" offset="1e-7"/>
      <stop stop-color="#fe8019" offset=".5"/>
      <stop stop-color="#d65d0e" offset="1"/>
    </linearGradient>
    <linearGradient id="paint1_linear" x1="78" x2="78" y1="79" y2="176.6" gradientUnits="userSpaceOnUse">
      <stop stop-color="#fabd2f" offset="1e-7"/>
      <stop stop-color="#fe8019" offset=".5"/>
      <stop stop-color="#d65d0e" offset="1"/>
    </linearGradient>
    <linearGradient id="paint2_linear" x1="155.6" x2="155.6" y1="15" y2="75.16" gradientUnits="userSpaceOnUse">
      <stop stop-color="#fabd2f" offset="1e-7"/>
      <stop stop-color="#fe8019" offset=".5"/>
      <stop stop-color="#d65d0e" offset="1"/>
    </linearGradient>
  </defs>
</svg>
